build/img/icon-arrow-left.svg

<svg width="8" height="14" viewBox="0 0 8 14" fill="none" xmlns="http://www.w3.org/2000/svg">
<path fill-rule="evenodd" clip-rule="evenodd" d="M7.05877 12.7009C7.44831 12.3106 7.44831 11.6785 7.05877 11.2882L3.4956 7.7176C3.10606 7.32725 3.10606 6.69522 3.4956 6.30486L7.05877 2.73427C7.44831 2.34391 7.44831 1.71188 7.05877 1.32153L6.958 1.22055C6.56731 0.829042 5.93301 0.829041 5.54232 1.22055L0.468575 6.30486C0.0790307 6.69521 0.0790302 7.32725 0.468574 7.7176L5.54231 12.8019C5.93301 13.1934 6.56731 13.1934 6.958 12.8019L7.05877 12.7009Z" fill="#0E4CD3"/>
</svg>

<svg width="8" height="14" fill="none" xmlns="http://www.w3.org/2000/svg"><path fill-rule="evenodd" clip-rule="evenodd" d="M7.059 12.7a1 1 0 000-1.412l-3.563-3.57a1 1 0 010-1.413l3.563-3.57a1 1 0 000-1.413l-.101-.101a1 1 0 00-1.416 0L.47 6.305a1 1 0 000 1.413l5.073 5.084a1 1 0 001.416 0l.1-.101z" fill="#0E4CD3"/></svg>
